!!!!SEGMENT: pl-sa--79-a-ii-19--001-004_siwinski-andrzej--missa-pro-defunctis-quantus-tremor.krn
!!!cenid: 17xx:296
!!!COM: Siwiński, Andrzej
!!!COM-rismID: pe41011487
!!!CDT: <1725->1725
!!!CNT:
!!!OPR: Missa pro defunctis
!!!OTL: Quantus tremor
!!!OMV: 004
!!!PDT: 1726
!!!AGN: Sacred; Mass
!!!YEC: Copyright 2022 Narodowy Instytut Fryderyka Chopina (https://polishscores.org)
!!!YEM: License CC-BY-4.0 (https://creativecommons.org/licenses/by/4.0)
!!!SMS-siglum: PL-SA
!!!SMS-shelfmark: 79/A II 19
!!!SMS-shelfwork: 001-004 M
!!!NIFC-rismSourceID: 1001070177
!!!NIFC-rismChildID: 1001070177
!!!NIFC-islandoraID: none
!!!URL-pdf-islandora:
!!!URL-scan: https://bc.bdsandomierz.pl/dlibra/publication/1356/edition/1324/content @EN{Scan in the Sandomierz Diocese Digital Library} @PL{Skany w portalu Cyfrowa Biblioteka Diecezjalna w Sandomierzu}
!!!IIIF:
!!!ONB-nifc: Uwaga: części Mszy: Requiem, Kyrie, Dies Irae, Quantus tremor, Tuba mirrum, Mors, Quid sum miser, Rex tremende, Quaerens me, Iuste iudex, Oro supplex, Pie Iesu Domine, Domine Iesu Christe,Quam olim Abrahae, Hostias, Sanctus, Osanna, Benedictus, Agnus Dei
!!!AIN: 1 alto 1 bass 2 oboe 1 organ 1 soprn 1 tenor 2 violn
!!!key: c
**kern	**fba	**kern	**kern	**kern	**text	**kern	**text	**kern	**text	**kern	**text	**kern	**kern
*	*	*group3	*group3	*group2	*	*group2	*	*group2	*	*group2	*	*group1	*group1
*part9	*	*part8	*part7	*part6	*	*part5	*	*part4	*	*part3	*	*part2	*part1
*staff9	*	*staff8	*staff7	*staff6	*	*staff5	*	*staff4	*	*staff3	*	*staff2	*staff1
*I"Baſso pro Organo	*	*I"Violino. 2do	*I"Violino 1mo	*I"Baſso vocali	*	*I"Tenore	*	*I"Alto.	*	*I"Canto.	*	*I"Hobois 2do	*I"Hautbo. 1mo.
*mI"Organo	*	*mI"Violino II	*mI"Violino I	*mI"Basso	*	*	*	*mI"Alto	*	*mI"Soprano	*	*mI"Oboe II	*mI"Oboe I
*I'org	*	*I'vl 2	*I'vl 1	*I'B	*	*I'T	*	*I'A	*	*I'S	*	*I'ob 2	*I'ob 1
*Iorgan	*	*Ivioln	*Ivioln	*Ibass	*	*Itenor	*	*Ialto	*	*Isoprn	*	*Ioboe	*Ioboe
*ICklav	*	*ICstr	*ICstr	*ICvox	*	*ICvox	*	*ICvox	*	*ICvox	*	*ICww	*ICww
*IGcont	*	*	*	*	*	*	*	*	*	*	*	*	*
*clefF4	*	*clefG2	*clefG2	*clefF4	*	*clefC4	*	*clefC3	*	*clefC1	*	*clefG2	*clefG2
*	*	*	*	*	*	*mclefGv2	*	*mclefG2	*	*mclefG2	*	*	*
*k[b-e-]	*	*k[b-e-]	*k[b-e-]	*k[b-e-]	*	*k[b-e-]	*	*k[b-e-]	*	*k[b-e-]	*	*k[b-e-]	*k[b-e-]
*c:	*	*c:	*c:	*c:	*	*c:	*	*c:	*	*c:	*	*c:	*c:
*M3/4	*	*M3/4	*M3/4	*M3/4	*	*M3/4	*	*M3/4	*	*M3/4	*	*M3/4	*M3/4
=1	=1	=1	=1	=1	=1	=1	=1	=1	=1	=1	=1	=1	=1
!LO:TX:b:rj:t=Tutti:mod=	!	!	!	!	!	!	!	!	!	!	!	!	!
!LO:TX:b:t=Quantus tremor:mod=	!	!	!	!LO:TX:a:t=1:mod=	!	!LO:TX:a:t=1:mod=	!	!	!	!	!	!	!LO:TX:b:t=Quantus tremor.:mod=
!	!	!LO:TX:b:t=Quantus tremor:mod=	!LO:TX:b:t=Quantus tremor.:mod=	!	!	!	!	!LO:TX:a:t=1.:mod=	!	!	!	!LO:TX:b:t=Quantus tremor:mod=	!LO:TX:a:i:t=Solo:mod=
4E-\	.	2.r	2.r	2.r	.	2.r	.	2.r	.	2.r	.	4r	8ee-\L
.	.	.	.	.	.	.	.	.	.	.	.	.	8ee-\J
4r	.	.	.	.	.	.	.	.	.	.	.	8ee-\L	8b-/L
.	.	.	.	.	.	.	.	.	.	.	.	8ee-\	8b-/
4r	.	.	.	.	.	.	.	.	.	.	.	8b-\	8g/
.	.	.	.	.	.	.	.	.	.	.	.	8b-\J	8g/J
=2	=2	=2	=2	=2	=2	=2	=2	=2	=2	=2	=2	=2	=2
8E-\L	.	4r	4r	8E-\	Quan-	8e-\	Quan-	8g\	Quan-	8b-\	Quan-	4g/	4e-/
!	!	!	!	!	!	!	!LO:SIC:o=-t(us)	!	!	!	!	!	!
8E-\J	.	.	.	8E-\	-tus	8e-\	-tus	8g\	-tus	8b-\	-tus	.	.
4E-\	.	4r	4r	8E-\L	tre-	8e-\L	tre-	8g\L	tre-	8b-\L	tre-	4r	4r
.	.	.	.	(16F\L	.	(16f\L	.	(16a-X\L	.	(16cc\L	.	.	.
.	.	.	.	16E-\JJ)	.	16e-\JJ)	.	16g\JJ)	.	16b-\JJ)	.	.	.
4r	.	8b-/L	8gg\L	8G\L	.	8e-\L	.	8g\L	.	8b-\L	.	4r	4r
!	!	!	!	!LO:SIC:o=16A-X\L	!	!	!	!	!	!	!	!	!
.	.	8b-/J	8gg\J	(16A-L	.	(16f\L	.	(16a-\L	.	(16cc\L	.	.	.
!	!	!	!	!LO:SIC:o=16G\JJ	!	!	!	!	!	!	!	!	!
.	.	.	.	16GJJ)	.	16e-\JJ)	.	16g\JJ)	.	16b-\JJ)	.	.	.
=3	=3	=3	=3	=3	=3	=3	=3	=3	=3	=3	=3	=3	=3
8BB-/L	.	4dd\	4ff\	4B-\	.	4d\	.	4f\	.	4dd\	.	8dd\L	8ff\L
8BB-/J	.	.	.	.	.	.	.	.	.	.	.	8dd\	8ff\
4BB-/	.	4r	4r	4BB-/	-mor	4d\	-mor	4f\	-mor	4b-\	-mor	8b-\	8dd\
.	.	.	.	.	.	.	.	.	.	.	.	8b-\	8dd\
4r	.	8dd\L	8ff\L	4r	.	4r	.	4r	.	4r	.	8f\	8b-\
.	.	8dd\J	8ff\J	.	.	.	.	.	.	.	.	8f\J	8b-\J
!	!	!	!	!	!	!	!	!	!	!LO:LB:g=original	!	!	!
=4	=4	=4	=4	=4	=4	=4	=4	=4	=4	=4	=4	=4	=4
!	!	!	!	!	!	!	!	!	!LO:MO:null:mod=*null	!	!LO:MO:null:mod=*null	!	!
*	*	*	*	*	*	*	*	*	*ij	*	*ij	*	*
!	!	!	!	!	!LO:SIC:o=quan-	!	!	!	!	!	!	!	!
8E-\L	.	4b-\	4gg\	8E-\	Quan-	8e-\	Quan-	8g\	Quan-	8b-\	Quan-	4g/	4ee-\
!	!	!	!	!	!LO:SIC:o=-t(us)	!	!LO:SIC:o=-t(us)	!	!	!	!	!	!
8E-\J	.	.	.	8E-\	-tus	8e-\	-tus	8g\	-tus	8b-\	-tus	.	.
4E-\	.	4r	4r	8E-\L	tre-	8e-\L	tre-	8g\L	tre-	8b-\L	tre-	4r	4r
!	!	!	!	!LO:SIC:o=16F\L	!	!	!	!	!	!	!	!	!
.	.	.	.	(16FL	.	(16f\L	.	(16a-X\L	.	(16cc\L	.	.	.
!	!	!	!	!LO:SIC:o=16E-\JJ	!	!	!	!	!	!	!	!	!
.	.	.	.	16E-JJ)	.	16e-\JJ)	.	16g\JJ)	.	16b-\JJ)	.	.	.
4r	.	8b-/L	8gg\L	8G\L	.	8e-\L	.	8g\L	.	8b-\L	.	4r	4r
!	!	!	!	!LO:SIC:o=16A-X\L	!	!	!	!	!	!	!	!	!
.	.	8b-/J	8gg\J	(16A-L	.	(16f\L	.	(16a-\L	.	(16cc\L	.	.	.
!	!	!	!	!LO:SIC:o=16G\JJ	!	!	!	!	!	!	!	!	!
.	.	.	.	16GJJ)	.	16e-\JJ)	.	16g\JJ)	.	16b-\JJ)	.	.	.
=5	=5	=5	=5	=5	=5	=5	=5	=5	=5	=5	=5	=5	=5
2B-\	.	2dd\	2ff\	4B-\	.	4d\	.	4f\	.	4dd\	.	8dd\L	8ff\L
.	.	.	.	.	.	.	.	.	.	.	.	8dd\	8ff\
.	.	.	.	4BB-/	-mor	4d\	-mor	4f\	-mor	4b-\	-mor	8b-\	8dd\
.	.	.	.	.	.	.	.	.	.	.	.	8b-\	8dd\
!	!	!	!	!	!	!	!	!	!LO:MO:null:mod=*null	!	!LO:MO:null:mod=*null	!	!
*	*	*	*	*	*	*	*	*	*Xij	*	*Xij	*	*
!	!	!	!	!	!LO:SIC:o=quan-	!	!	!	!	!	!	!	!
4BB-/	.	4d/	4f/	8BB-/	Quan-	8B-\	Quan-	8f\	Quan-	8dd\	Quan-	8f\	8b-\
!	!	!	!	!	!LO:SIC:o=-t(us)	!	!LO:SIC:o=-t(us)	!	!	!	!	!	!
.	.	.	.	8BB-/	-tus	8B-\	-tus	8f\	-tus	8dd\	-tus	8f\J	8b-\J
!LO:LB:g=original	!	!	!LO:LB:g=original	!	!	!	!	!	!	!	!	!	!
=6	=6	=6	=6	=6	=6	=6	=6	=6	=6	=6	=6	=6	=6
!	!	!LO:TX:t=P:problem: w całej części staccato wygląda jak falista linia	!LO:TX:t=P:problem: w całej części staccato wygląda jak falista linia	!	!	!	!	!	!	!	!	!LO:TX:t=P:problem: w całej części staccato wygląda jak falista linia	!LO:TX:t=P:problem: w całej części staccato wygląda jak falista linia
8E-\L	5	8e-'/L	8g'/L	8E-\L	tre-	4B-\	tre-	4g\	tre-	8b-\L	tre-	8e-'/L	8g'/L
!	!	!	!	!	!	!	!	!	!	!LO:TX:a:t=P:problem:♭ above	!	!	!
8D\	5	8e-'/	8g'/	8D\	.	.	.	.	.	8a-X\	.	8e-'/	8g'/
8E-\	5	8e-'/	8g'/	8E-\	.	8G/L	.	8e-\L	.	8b-\	.	8e-'/	8g'/
!	!	!	!	!	!	!LO:SIC:v:o=8A/	!	!	!	!LO:TX:a:t=P:problem:♭ above	!	!	!
8D\	5	8e-'/	8g'/	8D\	.	8A-	.	8f\	.	8a-X\	.	8e-'/	8g'/
8E-\	5	8e-'/	8g'/	8E-\	.	8B-/	.	8g\	.	8b-\	.	8e-'/	8g'/
8C\J	5	8e-'/J	8g'/J	8C\J	.	8G/J	.	8e-\J	.	8g\J	.	8e-'/J	8g'/J
!	!	!	!	!	!	!LO:LB:g=original	!	!	!	!	!	!	!
=7	=7	=7	=7	=7	=7	=7	=7	=7	=7	=7	=7	=7	=7
8F\L	5_	8f'/L	8a-X'/L	8F\L	.	4c\	.	4a-X\	.	8cc\L	.	8f'/L	8a-X'/L
8E-\	.	8f'/	8a-'/	8E-\	.	.	.	.	.	8b-\	.	8f'/	8a-'/
8F\	.	8f'/	8a-'/	8F\	.	8A-X\L	.	8f\L	.	8cc\	.	8f'/	8a-'/
8E-\	.	8f'/	8a-'/	8E-\	.	8B-\	.	8g\	.	8b-\	.	8f'/	8a-'/
!	!	!	!	!	!	!	!	!LO:TX:a:t=P:problem:♭ above	!	!	!	!	!
8F\	.	8f'/	8a-'/	8F\	.	8c\	.	8a-X\	.	8cc\	.	8f'/	8a-'/
!	!	!	!	!	!	!	!	!	!	!LO:TX:a:t=P:problem:♭ above	!	!	!
8D\J	.	8f'/J	8a-'/J	8D\J	.	8A-\J	.	8f\J	.	8a-X\J	.	8f'/J	8a-'/J
!	!	!	!	!LO:LB:g=original	!	!	!	!	!	!	!	!LO:LB:g=original	!
=8	=8	=8	=8	=8	=8	=8	=8	=8	=8	=8	=8	=8	=8
8G\L	5_	8g'/L	8b-'\L	8G\L	.	4d\	.	4b-\	.	8dd\L	.	8g'/L	8b-'/L
8F\	.	8g'/	8b-'\	8F\	.	.	.	.	.	8cc\	.	8g'/	8b-'/
8G\	.	8g'/	8b-'\	8G\	.	8B-\L	.	8g\L	.	8dd\	.	8g'/	8b-'/
8F\	.	8g'/	8b-'\	8F\	.	8c\	.	8a-X\	.	8cc\	.	8g'/	8b-'/
8G\	.	8g'/	8b-'\	8G\	.	8d\	.	8b-\	.	8dd\	.	8g'/	8b-'/
8E-\J	.	8g'/J	8b-'\J	8E-\J	.	8B-\J	.	8g\J	.	8b-\J	.	8g'/J	8b-'/J
!	!	!	!	!	!	!	!	!LO:LB:g=original	!	!	!	!	!
=9	=9	=9	=9	=9	=9	=9	=9	=9	=9	=9	=9	=9	=9
8A-X\L	5_	8a-X'/L	8cc'\L	8A-X\L	.	4e-\	.	4cc\	.	8ee-\L	.	8a-X'/L	8cc'/L
8G\	.	8a-'/	8cc'\	8G\	.	.	.	.	.	8dd\	.	8a-'/	8cc'/
8A-\	.	8a-'/	8cc'\	8A-\	.	8c\L	.	8a-X\L	.	8ee-\	.	8a-'/	8cc'/
8G\	.	8a-'/	8cc'\	8G\	.	8d\	.	8b-\	.	8dd\	.	8a-'/	8cc'/
8A-\	.	8a-'/	8cc'\	8A-\	.	8e-\	.	8cc\	.	8ee-\	.	8a-'/	8cc'/
8F\J	.	8a-'/J	8cc'\J	8F\J	.	8c\J	.	8a-X\J	.	8cc\J	.	8a-'/J	8cc'/J
=10	=10	=10	=10	=10	=10	=10	=10	=10	=10	=10	=10	=10	=10
!LO:TX:t=P:problem=mixed beam	!	!	!	!	!	!	!	!	!	!	!	!	!LO:SIC:o=(8dd\L
8B-\L	5_	8b-\L	8dd\L	8B-\	.	8B-\	.	8f\	.	8dd\	.	8b-\L	8ddL
!	!	!	!	!	!	!	!	!	!	!	!	!	!LO:SIC:o=8ee-\)
8A-X\	.	8cc\	8ee-\	8A-X\	-mor	8c\	-mor	8e-\	-mor	8ee-\	-mor	8cc\	8ee
!	!	!	!	!	!LO:SIC:v:o=et	!	!LO:SIC:v:o=et	!	!	!	!	!	!LO:SIC:o=(8dd\
8G\	.	8b-\	8dd\	8G\	est	8B-\	est	8f\	est	8b-\	est	8b-\	8dd
!	!	!LO:SIC:o=8cc\J	!	!	!	!	!	!	!	!	!	!	!LO:SIC:o=8ee-\)
8A-\	.	8cc	8ee-\	8A-X\	fu-	8c\	fu-	8f\	fu-	8ee-\	fu-	8cc\	8ee-
!	!	!LO:MO:mod=8dd	!	!	!	!	!	!	!	!	!	!	!LO:SIC:o=(8ff\
8B-\	.	4dd\	8ff\	4B-\	-tu-	4B-\	-tu-	4f\	-tu-	4dd\	-tu-	8dd\	8ff
!	!	!LO:MO:null:mod=8ddJ	!	!	!	!	!	!	!	!	!	!	!LO:SIC:o=8ff\J)
8BB-/J	4	.	8ff\J	.	.	.	.	.	.	.	.	8dd\J	8ffJ
.	3	.	.	.	.	.	.	.	.	.	.	.	.
!	!	!	!	!	!	!	!	!	!	!	!	!	!LO:LB:g=original
=11	=11	=11	=11	=11	=11	=11	=11	=11	=11	=11	=11	=11	=11
!LO:TX:t=P:problem: w całej części staccato wygląda jak falista linia	!	!	!	!	!	!	!	!	!	!	!LO:SIC:o=-rus.	!LO:TX:t=P:problem=mixed beam	!LO:TX:t=P:problem=mixed beam
8E-'\L	.	8ee-\L	8gg\L	4E-\	-rus	4B-\	-rus	4g\	-rus	4ee-\	-rus	8ee-\L	8gg\L
8E-'\	.	8g'\	8b-'\	.	.	.	.	.	.	.	.	8g'/	8b-'/
8E-'\	.	8g'\	8b-'\	4r	.	4r	.	4r	.	4r	.	8g'/	8b-'/
8E-'\	.	8g'\	8b-'\	.	.	.	.	.	.	.	.	8g'/	8b-'/
8E-'\	.	8g'\	8b-'\	4r	.	4r	.	4r	.	4r	.	8g'/	8b-'/
8E-'\J	.	8g'\J	8b-'\J	.	.	.	.	.	.	.	.	8g'/J	8b-'/J
!	!	!LO:LB:g=original	!	!	!	!	!	!	!	!	!	!	!
=12	=12	=12	=12	=12	=12	=12	=12	=12	=12	=12	=12	=12	=12
!	!	!	!	!	!	!LO:TX:a:t=1:mod=	!	!	!	!LO:TX:a:t=1:mod=	!	!	!
8A-X'\L	.	8e-'/L	8cc'\L	2.r	.	2.r	.	2.r	.	2.r	.	8e-'/L	8cc'\L
8A-'\	.	8e-'/	8cc'\	.	.	.	.	.	.	.	.	8e-'/	8cc'\
8A-'\	.	8e-'/	8cc'\	.	.	.	.	.	.	.	.	8e-'/	8cc'\
8A-'\	.	8e-'/	8cc'\	.	.	.	.	.	.	.	.	8e-'/	8cc'\
8A-'\	.	8e-'/	8cc'\	.	.	.	.	.	.	.	.	8e-'/	8cc'\
8A-'\J	.	8e-'/J	8cc'\J	.	.	.	.	.	.	.	.	8e-'/J	8cc'\J
!	!	!	!	!	!	!	!	!	!	!LO:LB:g=original	!	!	!
=13	=13	=13	=13	=13-	=13	=13	=13	=13-	=13	=13	=13	=13	=13
8BB-'/L	.	8d'/L	8f'/L	4r	.	4r	.	4r	.	4r	.	8d'/L	8f'/L
8BB-'/	.	8d'/	8f'/	.	.	.	.	.	.	.	.	8d'/	8f'/
8BB-'/	.	8d'/	8f'/	4r	.	4r	.	4r	.	4r	.	8d'/	8f'/
8BB-'/	.	8d'/	8f'/	.	.	.	.	.	.	.	.	8d'/	8f'/
8BB-'/	.	8d'/	8f'/	8BB-/	Quan-	8B-\	Quan-	8f\	Quan-	8dd\	Quan-	8d'/	8f'/
8BB-'/J	.	8d'/J	8f'/J	8BB-/	-tus	8B-\	-tus	8f\	-tus	8dd\	-tus	8d'/J	8f'/J
=14	=14	=14	=14	=14	=14	=14-	=14	=14	=14	=14	=14	=14	=14
8E-\L	5_	8e-'/L	8g'/L	8E-\L	tre-	4B-\	tre-	4g\	tre-	8b-\L	tre-	8e-'/L	8g'/L
!	!	!	!	!	!	!	!	!	!	!LO:TX:a:t=P:problem:♭ above	!	!	!
8D\	.	8e-'/	8g'/	8D\	.	.	.	.	.	8a-X\	.	8e-'/	8g'/
8E-\	.	8e-'/	8g'/	8E-\	.	8G/L	.	8e-\L	.	8b-\	.	8e-'/	8g'/
!	!	!	!	!	!	!	!	!	!	!LO:TX:a:t=P:problem:♭ above	!	!	!
8D\	.	8e-'/	8g'/	8D\	.	8A-X/	.	8f\	.	8a-X\	.	8e-'/	8g'/
8E-\	.	8e-'/	8g'/	8E-\	.	8B-/	.	8g\	.	8b-\	.	8e-'/	8g'/
8C\J	.	8e-'/J	8g'/J	8C\J	.	8G/J	.	8e-\J	.	8g\J	.	8e-'/J	8g'/J
!LO:LB;g=original	!	!	!	!	!	!	!	!	!	!	!	!	!
=15	=15	=15	=15	=15	=15	=15	=15	=15	=15	=15	=15	=15	=15
8F\L	5_	8f'/L	8a-X'/L	8F\L	.	4c\	.	4a-X\	.	8cc\L	.	8f'/L	8a-X'/L
8E-\	.	8f'/	8a-'/	8E-\	.	.	.	.	.	8b-\	.	8f'/	8a-'/
!	!	!	!	!	!	!LO:SIC:v:o=8A\L	!	!	!	!	!	!	!
8F\	.	8f'/	8a-'/	8F\	.	8A-\L	.	8f\L	.	8cc\	.	8f'/	8a-'/
8E-\	.	8f'/	8a-'/	8E-\	.	8B-\	.	8g\	.	8b-\	.	8f'/	8a-'/
8F\	.	8f'/	8a-'/	8F\	.	8c\	.	8a-\	.	8cc\	.	8f'/	8a-'/
!	!	!	!	!	!	!LO:SIC:v:o=8A\J	!	!	!	!LO:TX:a:t=P:problem:♭ above	!	!	!
8D\J	.	8f'/J	8a-'/J	8D\J	.	8A-\J	.	8f\J	.	8a-X\J	.	8f'/J	8a-'/J
!	!	!	!LO:LB:g=original	!	!	!LO:LB:g=original	!	!	!	!	!	!	!
=16	=16	=16	=16	=16	=16	=16	=16	=16	=16	=16	=16	=16	=16
8G\L	5_	8g'/L	8b-'\L	8G\L	.	4d\	.	4b-\	.	8dd\L	.	8g'/L	8b-'/L
8F\	.	8g'/	8b-'\	8F\	.	.	.	.	.	8cc\	.	8g'/	8b-'/
8G\	.	8g'/	8b-'\	8G\	.	8B-\L	.	8g\L	.	8dd\	.	8g'/	8b-'/
8F\	.	8g'/	8b-'\	8F\	.	8c\	.	8a-X\	.	8cc\	.	8g'/	8b-'/
8G\	.	8g'/	8b-'\	8G\	.	8d\	.	8b-\	.	8dd\	.	8g'/	8b-'/
8E-\J	.	8g'/J	8b-'\J	8E-\J	.	8B-\J	.	8g\J	.	8b-\J	.	8g'/J	8b-'/J
!	!	!	!	!LO:LB:g=original	!	!	!	!	!	!	!	!	!
=17	=17	=17	=17	=17	=17	=17	=17	=17	=17	=17	=17	=17	=17
8A-X\L	5_	8a-X'/L	8cc'\L	8A-X\L	.	4e-\	.	4cc\	.	8ee-\L	.	8a-X'/L	8cc'/L
8G\	.	8a-'/	8cc'\	8G\	.	.	.	.	.	8dd\	.	8a-'/	8cc'/
8A-\	.	8a-'/	8cc'\	8A-\	.	8c\L	.	8a-X\L	.	8ee-\	.	8a-'/	8cc'/
8G\	.	8a-'/	8cc'\	8G\	.	8d\	.	8b-\	.	8dd\	.	8a-'/	8cc'/
8A-\	.	8a-'/	8cc'\	8A-\	.	8e-\	.	8cc\	.	8ee-\	.	8a-'/	8cc'/
8F\J	.	8a-'/J	8cc'\J	8F\J	.	8c\J	.	8a-\J	.	8cc\J	.	8a-'/J	8cc'/J
!	!	!	!	!	!	!	!	!LO:LB:g=original	!	!	!	!LO:LB:g=original	!
=18	=18	=18	=18	=18	=18	=18	=18	=18	=18	=18	=18	=18	=18
!LO:TX:t=P:problem=mixed beam	!	!	!	!	!	!	!	!	!	!	!	!	!LO:SIC:o=(8dd\L
8B-\L	5	8b-\L	8dd\L	8B-\	.	8B-\	.	8f\	.	8dd\	.	8b-\L	8ddL
!	!	!	!	!	!	!	!	!	!	!	!	!	!LO:SIC:o=8ee-\)
8A-X\	.	8cc\	8ee-\	8A-X\	-mor	8c\	-mor	8e-\	-mor	8ee-\	-mor	8cc\	8ee-
!	!	!	!	!	!LO:SIC:v:o=et	!	!LO:SIC:v:o=et	!	!	!	!	!	!LO:SIC:o=(8dd\
8G\	.	8b-\	8dd\	8G\	est	8B-\	est	8f\	est	8b-\	est	8b-\	8dd
!	!	!	!	!	!	!	!	!	!	!	!	!	!LO:SIC:o=8ee-\)
8A-\	.	8cc\	8ee-\	8A-X\	fu-	8c\	fu-	8f\	fu-	8ee-\	fu-	8cc\	8ee-
!	!	!	!	!	!	!	!	!	!	!	!	!	!LO:SIC:o=(8ff\
8B-\	.	8dd\	8ff\	4B-\	-tu-	4B-\	-tu-	4f\	-tu-	4dd\	-tu-	8dd\	8ff
!	!	!	!	!	!	!	!	!	!	!	!	!	!LO:SIC:o=8ff\J)
8BB-/J	.	8dd\J	8ff\J	.	.	.	.	.	.	.	.	8dd\J	8ffJ
.	4	.	.	.	.	.	.	.	.	.	.	.	.
.	3	.	.	.	.	.	.	.	.	.	.	.	.
=19	=19	=19	=19	=19	=19	=19	=19	=19	=19	=19	=19	=19	=19
!	!	!LO:TX:t=P:problem=mixed beam	!	!	!	!	!	!	!	!	!	!LO:TX:t=P:problem=mixed beam	!LO:TX:t=P:problem=mixed beam
8E-'\L	.	8ee-\L	8gg\L	4E-\	-rus	4B-\	-rus	4g\	-rus	4ee-\	-rus	8ee-\L	8gg\L
!	!	!	!	!	!	!	!	!	!	!	!	!LO:TX:b:t=g	!
8E-'\	.	8g'/	8b-'\	.	.	.	.	.	.	.	.	8e-'/	8b-'/
!	!	!	!	!	!	!	!	!	!	!	!	!LO:TX:b:t=g:mod=	!
8E-'\	.	8g'/	8b-'\	4r	.	4r	.	4r	.	4r	.	8e-'/	8b-'/
8E-'\	.	8g'/	8b-'\	.	.	.	.	.	.	.	.	8e-'/	8b-'/
!	!	!	!	!	!	!	!	!	!	!	!	!LO:TX:b:t=g:mod=	!
8E-'\	.	8g'/	8b-'\	4r	.	4r	.	4r	.	4r	.	8e-'/	8b-'/
!	!	!	!	!	!	!	!	!	!	!	!	!LO:TX:b:t=g:mod=	!
8E-'\J	.	8g'/J	8b-'\J	.	.	.	.	.	.	.	.	8e-'/J	8b-'/J
=20	=20	=20	=20	=20	=20	=20	=20	=20	=20	=20	=20	=20	=20
!	!	!	!	!	!	!	!	!	!	!LO:TX:a:t=5:mod=	!	!	!
!	!	!	!	!LO:N:vis=00	!	!LO:N:vis=00	!	!LO:N:vis=00	!	!LO:N:vis=00	!	!	!
8A-X'\L	.	8e-'/L	8cc'\L	0.r	.	0.r	.	0.r	.	0.r	.	8e-'/L	8cc'\L
8A-'\	.	8e-'/	8cc'\	.	.	.	.	.	.	.	.	8e-'/	8cc'\
8A-'\	.	8e-'/	8cc'\	.	.	.	.	.	.	.	.	8e-'/	8cc'\
8A-'\	.	8e-'/	8cc'\	.	.	.	.	.	.	.	.	8e-'/	8cc'\
8A-'\	.	8e-'/	8cc'\	.	.	.	.	.	.	.	.	8e-'/	8cc'\
8A-'\J	.	8e-'/J	8cc'\J	.	.	.	.	.	.	.	.	8e-'/J	8cc'\J
!	!	!	!	!	!	!	!	!	!	!	!	!	!LO:LB:g=original
=21	=21	=21	=21	=21	=21	=21	=21	=21	=21	=21	=21	=21	=21
8BB-'/L	.	8d'/L	8f'/L	.	.	.	.	.	.	.	.	8d'/L	8f'/L
8BB-'/	.	8d'/	8f'/	.	.	.	.	.	.	.	.	8d'/	8f'/
8BB-'/	.	8d'/	8f'/	.	.	.	.	.	.	.	.	8d'/	8f'/
8BB-'/	.	8d'/	8f'/	.	.	.	.	.	.	.	.	8d'/	8f'/
8BB-'/	.	8d'/	8f'/	.	.	.	.	.	.	.	.	8d'/	8f'/
8BB-'/J	.	8d'/J	8f'/J	.	.	.	.	.	.	.	.	8d'/J	8f'/J
=22	=22	=22	=22	=22	=22	=22	=22	=22	=22	=22	=22	=22	=22
!	!	!LO:TX:t=P:problem=mixed beam	!LO:TX:t=P:problem=mixed beam	!	!	!	!	!	!	!	!	!LO:TX:t=P:problem=mixed beam	!LO:TX:t=P:problem=mixed beam
8EE-/L	.	8e-/L	8g/L	.	.	.	.	.	.	.	.	8e-/L	8g/L
8C'/	.	8ee-'\	8gg'\	.	.	.	.	.	.	.	.	8ee-'\	8gg'\
8C'/	.	8ee-'\	8gg'\	.	.	.	.	.	.	.	.	8ee-'\	8gg'\
8C'/	.	8ee-'\	8gg'\	.	.	.	.	.	.	.	.	8ee-'\	8gg'\
8C'/	.	8ee-'\	8gg'\	.	.	.	.	.	.	.	.	8ee-'\	8gg'\
8C'/J	.	8ee-'\J	8gg'\J	.	.	.	.	.	.	.	.	8ee-'\J	8gg'\J
!	!	!LO:LB:g=original	!	!	!	!	!	!	!	!	!	!	!
=23	=23	=23	=23	=23	=23	=23	=23	=23	=23	=23	=23	=23	=23
8F'\L	-	8cc'\L	8aa-X'\L	.	.	.	.	.	.	.	.	8cc'\L	8aa-X'\L
8F'\	.	8cc'\	8aa-'\	.	.	.	.	.	.	.	.	8cc'\	8aa-'\
8F'\	-	8cc'\	8aa-'\	.	.	.	.	.	.	.	.	8cc'\	8aa-'\
8F'\	.	8cc'\	8aa-'\	.	.	.	.	.	.	.	.	8cc'\	8aa-'\
8F'\	-	8cc'\	8aa-'\	.	.	.	.	.	.	.	.	8cc'\	8aa-'\
8F'\J	.	8cc'\J	8aa-'\J	.	.	.	.	.	.	.	.	8cc'\J	8aa-'\J
!LO:LB:g=original	!	!	!	!	!	!	!	!	!	!	!	!	!
=24	=24	=24	=24	=24	=24	=24	=24	=24	=24	=24	=24	=24	=24
!	!	!	!	!	!	!	!	!	!	!	!	!LO:TX:a:t=P:problem:♮ above	!
8GG'/L	#	8bn'\L	8dd'\L	2.r	.	2.r	.	2.r	.	2.r	.	8bn'\L	8dd'\L
8GG'/	.	8b'\	8dd'\	.	.	.	.	.	.	.	.	8b'\	8dd'\
!	!	!	!	!	!	!	!	!	!	!	!	!LO:TX:a:t=P:problem:♮ above	!
8GG'/	#	8b'\	8dd'\	.	.	.	.	.	.	.	.	8bn'\	8dd'\
8GG'/	.	8b'\	8dd'\	.	.	.	.	.	.	.	.	8b'\	8dd'\
!	!	!	!	!	!	!	!	!	!	!	!	!LO:TX:a:t=P:problem:♮ above	!
8GG'/	#	8b'\	8dd'\	.	.	.	.	.	.	.	.	8bn'\	8dd'\
!	!	!	!	!	!	!	!	!	!	!	!	!LO:TX:a:t=P:problem:♮ above	!
8GG'/J	.	8b'\J	8dd'\J	.	.	.	.	.	.	.	.	8bn'\J	8dd'\J
=25	=25	=25	=25	=25	=25	=25	=25	=25	=25	=25	=25	=25	=25
2C/	.	8cc'\L	8ee-'\L	4r	.	4r	.	4r	.	4r	.	8cc'\L	8ee-'\L
.	.	8cc'\	8ee-'\	.	.	.	.	.	.	.	.	8cc'\	8ee-'\
!	!	!	!	!	!	!	!	!	!	!LO:TX:t=P:problem:w 3 taktach najpierw prawie nieczytelny, potem brak tekstu (uszkodzony papier)	!	!	!
.	.	8cc'\	8ee-'\	4c\	Quan-	4c\	Quan-	4g\	Quan-	4ee-\	Quan-	8cc'\	8ee-'\
.	.	8cc'\	8ee-'\	.	.	.	.	.	.	.	.	8cc'\	8ee-'\
4C/	.	8cc'\	8ee-'\	4c\	-do	4c\	-do	4g\	-do	4ee-\	-do	8cc'\	8ee-'\
.	.	8cc'\J	8ee-'\J	.	.	.	.	.	.	.	.	8cc'\J	8ee-'\J
!	!	!	!LO:LB:g=original	!	!	!	!	!	!	!	!	!	!
=26	=26	=26	=26	=26	=26	=26	=26	=26	=26	=26	=26	=26	=26
!	!	!	!	!	!LO:SIC:o=Ju-	!	!LO:SIC:o=Ju-	!	!LO:SIC:o=Ju-	!	!LO:SIC:o=[Ju-	!	!
2G\	.	8g'/L	8dd'\L	2Bn\	iu-	2d\	iu-	2g\	iu-	2dd\	[iu-	8bn'\L	8dd'\L
.	.	8g'/	8dd'\	.	.	.	.	.	.	.	.	8b'\	8dd'\
.	.	8g'/	8dd'\	.	.	.	.	.	.	.	.	8b'\	8dd'\
.	.	8g'/	8dd'\	.	.	.	.	.	.	.	.	8b'\	8dd'\
!	!	!LO:SIC:v:o=8b-'/	!	!	!	!	!	!	!	!	!	!	!
4G\	.	8bn/	8dd'\	4G\	-dex	4Bn\	-dex	4g\	-dex	4dd\	-dex	8b'\	8dd'\
!	!	!LO:SIC:v:o=8b-'/J	!	!	!	!	!	!	!	!	!	!	!
.	.	8b/J	8dd'\J	.	.	.	.	.	.	.	.	8b'\J	8dd'\J
=27	=27	=27	=27	=27	=27	=27	=27	=27	=27	=27	=27	=27	=27
4r	.	8a-X'/L	8cc'\L	4r	.	4r	.	4r	.	4r	.	8a-X'/L	8cc'\L
.	.	8a-'/	8cc'\	.	.	.	.	.	.	.	.	8a-'/	8cc'\
4A-X\	.	8a-'/	8cc'\	4A-X\	est	4A-X\	est	4e-\	est	4cc\	est	8a-'/	8cc'\
.	.	8a-'/	8cc'\	.	.	.	.	.	.	.	.	8a-'/	8cc'\
!	!	!	!	!	!LO:SIC:o=Ven-	!	!LO:SIC:o=Ven-	!	!	!	!	!	!
4F\	.	8a-'/	8cc'\	4F\	ven-	4c\	ven-	4a-X\	ven-	4cc\	ven]-	8a-'/	8cc'\
.	.	8a-'/J	8cc'\J	.	.	.	.	.	.	.	.	8a-'/J	8cc'\J
!	!	!	!	!	!	!	!	!	!	!LO:PB:g=original	!	!	!
=28	=28	=28	=28	=28	=28	=28	=28	=28	=28	=28	=28	=28	=28
!	!	!	!	!	!	!	!	!	!	!	!	!	!LO:SIC:o=8bn/L
2.G\	.	4dd\	8bn'\L	2G\	-tu-	2Bn\	-tu-	2g\	-tu-	2bn\	-tu-	4g/	8bn'L
!	!	!	!	!	!	!	!	!	!	!	!	!	!LO:SIC:o=8b/
.	.	.	8b'\	.	.	.	.	.	.	.	.	.	8b'
!	!	!	!	!	!	!	!	!	!	!	!	!	!LO:SIC:o=8b/
.	.	4dd\	8b'\	.	.	.	.	.	.	.	.	4g/	8b'
!	!	!	!	!	!	!	!	!	!	!	!	!	!LO:SIC:o=8b/J
.	.	.	8b'\J	.	.	.	.	.	.	.	.	.	8b'J
!	!	!	!LO:SIC:o=4b'\	!	!LO:SIC:o=-r(us)	!	!	!	!	!	!	!	!
.	.	4dd\	4b	4G\	-rus	4B\	-rus	4g\	-rus	4b\	-rus	4g/	4b/
!	!	!	!	!	!	!	!	!	!	!	!	!LO:LB;g=original	!
=29	=29	=29	=29	=29	=29	=29	=29	=29	=29	=29	=29	=29	=29
4r	.	4r	4r	4r	.	4r	.	4r	.	4r	.	4r	4r
!	!	!	!	!LO:SIC:o=8C/L	!	!	!	!	!	!LO:SIC:o=8ee-\L	!	!	!
8C/L	.	8ee-\L	8gg\L	(8CL	Cun-	4c\	Cun-	4g\	Cun-	(8ee-L	Cun-	4ee-\	4gg\
!	!	!	!	!LO:SIC:o=8D/J	!	!	!	!	!	!LO:SIC:o=(8dd\J	!	!	!
8D/	.	8dd\J	8ff\	8DJ)	.	.	.	.	.	8ddJ)	.	.	.
!	!	!	!	!LO:SIC:o=8E-\L	!	!	!	!	!	!LO:SIC:o=4cc\)	!	!	!
8E-/	.	4cc\	8gg\	(8E-L	-cta	4c\	-cta	4g\	-cta	4cc	-cta	4gg\	4cc\
!	!	!	!LO:TX:a:t=P:problem:♭ above	!LO:SIC:o=8F\J	!	!	!	!	!	!	!	!	!
8F/J	.	.	8aa-X\J	8FJ)	.	.	.	.	.	.	.	.	.
!	!	!	!	!	!	!LO:LB:g=original	!	!	!	!	!	!	!
=30	=30	=30	=30	=30	=30	=30	=30	=30	=30	=30	=30	=30	=30
!	!	!LO:TX:a:t=P:problem:♮ above	!	!	!	!	!LO:SIC:o=Stric-	!	!LO:SIC:o=Stric-	!	!LO:SIC:o=Stric-	!LO:MO:mod=4bn	!
4.G\	#	4bn\	4.dd\	4.G\	ſtric-	4.d\	stric-	4.g\	stric-	4.bn\	stric-	2bn\	4.dd\
!	!	!	!	!	!	!	!	!	!	!	!	!LO:MO:null:mod=4b	!
.	.	4b\	.	.	.	.	.	.	.	.	.	.	.
8F\	.	.	8dd\	8F\	-te	8d\	-te	8a-X\	-te	8b\	-te	.	8dd\
4E-\	.	4cc\	4ee-\	4E-\	dis-	4e-\	dis-	4g\	dis-	4cc\	dis-	4cc\	4ee-\
!	!	!	!	!LO:LB:g=original	!	!	!	!	!	!	!	!	!
=31	=31	=31	=31	=31	=31	=31	=31	=31	=31	=31	=31	=31	=31
!	!	!	!	!	!LO:SIC:v:o=-Cur-	!	!LO:SIC:v:o=-Cur-	!	!LO:SIC:v:o=-cur-	!	!LO:SIC:v:o=-cur-	!	!
4F\	5	4cc\	4aa-X\	4F\	-cus-	4c\	-cus-	4a-X\	-cus-	4cc\	-cus-	4a-X/	4cc\
.	6	.	.	.	.	.	.	.	.	.	.	.	.
!	!	!	!	!	!	!	!	!	!LO:MO:mod=-su-	!	!	!	!
2G\	4	2bn\	2gg\	2G\	-su-	2d\	-su-	2g\	-Su-	2bn\	-su-	2g/	2ddm\
.	3	.	.	.	.	.	.	.	.	.	.	.	.
!	!	!	!	!	!	!	!	!LO:PB:g=original	!	!	!	!	!LO:LB:g=original
=32	=32	=32	=32	=32	=32	=32	=32	=32	=32	=32	=32	=32	=32
!	!	!	!	!	!	!	!	!	!	!	!	!LO:TX:t=P:problem=mixed beam	!
8C'/L	.	8cc'\L	8gg'\L	4C/	-rus	4c\	-rus	4g\	-rus	4cc\	-rus	8e-/L	8cc\L
8C'/	.	8ee-'\	8gg'\	.	.	.	.	.	.	.	.	8ee-'\	8gg'\
8C'/	.	8ee-'\	8gg'\	4r	.	4r	.	4r	.	4r	.	8ee-'\	8gg'\
8C'/	.	8ee-'\	8gg'\	.	.	.	.	.	.	.	.	8ee-'\	8gg'\
8C'/	.	8ee-'\	8gg'\	4r	.	4r	.	4r	.	4r	.	8ee-'\	8gg'\
8C'/J	.	8ee-'\J	8gg'\J	.	.	.	.	.	.	.	.	8ee-'\J	8gg'\J
=33	=33	=33	=33	=33	=33	=33	=33	=33	=33	=33	=33	=33	=33
!	!	!	!	!LO:N:vis=0	!	!LO:N:vis=0	!	!LO:N:vis=0	!	!LO:N:vis=0	!	!	!
8F'\L	-	8cc'\L	8aa-X'\L	1.r	.	1.r	.	1.r	.	1.r	.	8cc'\L	8aa-X'\L
8F'\	6	8cc'\	8aa-'\	.	.	.	.	.	.	.	.	8cc'\	8aa-'\
8F'\	.	8cc'\	8aa-'\	.	.	.	.	.	.	.	.	8cc'\	8aa-'\
8F'\	-	8cc'\	8aa-'\	.	.	.	.	.	.	.	.	8cc'\	8aa-'\
8F'\	.	8cc'\	8aa-'\	.	.	.	.	.	.	.	.	8cc'\	8aa-'\
8F'\J	.	8cc'\J	8aa-'\J	.	.	.	.	.	.	.	.	8cc'\J	8aa-'\J
=34	=34	=34	=34	=34-	=34	=34-	=34	=34	=34	=34-	=34	=34	=34
8GG'/L	#_	8bn'\L	8dd'\L	.	.	.	.	.	.	.	.	8bn'\L	8dd'\L
8GG'/	.	8b'\	8dd'\	.	.	.	.	.	.	.	.	8b'\	8dd'\
8GG'/	.	8b'\	8dd'\	.	.	.	.	.	.	.	.	8b'\	8dd'\
8GG'/	.	8b'\	8dd'\	.	.	.	.	.	.	.	.	8b'\	8dd'\
8GG'/	.	8b'\	8dd'\	.	.	.	.	.	.	.	.	8b'\	8dd'\
8GG'/J	x	8b'\J	8dd'\J	.	.	.	.	.	.	.	.	8b'\J	8dd'\J
=35	=35	=35	=35	=35-	=35	=35-	=35	=35-	=35	=35-	=35	=35	=35
4C/	.	4cc\	4ee-\	4r	.	4r	.	4r	.	4r	.	4cc\	4ee-\
!	!	!	!	!	!	!	!	!	!	!LO:SIC:o=8ee-\L	!	!	!
8C/L	.	8ee-\L	8gg\L	(8C/L	Cun-	4c\	Cun-	4g\	Cun-	(8ee-L	Cun-	4ee-\	4gg\
!	!	!	!	!	!	!	!	!	!	!LO:SIC:o=(8dd\J	!	!	!
8D/	.	8dd\J	8ff\	8D/J)	.	.	.	.	.	8ddJ)	.	.	.
!	!	!	!	!LO:SIC:o=8E-\L	!	!	!	!	!	!LO:SIC:o=4cc\)	!	!	!
8E-/	.	4cc\	8gg\	(8E-L	-cta	4c\	-cta	4g\	-cta	4cc	-cta	4gg\	4cc/
!	!	!	!LO:TX:a:t=P:problem:♭ above	!LO:SIC:o=8F\J	!	!	!	!	!	!	!	!	!
8F/J	.	.	8aa-X\J	8FJ)	.	.	.	.	.	.	.	.	.
!	!	!LO:LB:g=original	!	!	!	!	!	!	!	!	!	!	!
=36	=36	=36	=36	=36	=36	=36	=36	=36	=36	=36	=36	=36	=36
!	!	!	!	!	!	!	!	!	!LO:SIC:o=Stric-	!	!LO:SIC:o=Stric-	!	!
4.G\	#	4bn\	4.dd\	4.G\	ſtric-	4.d\	ſtric-	4.g\	stric-	4.bn\	stric-	2bn\	4.dd\
.	.	4b\	.	.	.	.	.	.	.	.	.	.	.
8F\	.	.	8dd\	8F\	-te	8d\	-te	8a-X\	-te	8b\	-te	.	8dd\
4E-\	.	4cc\	4ee-\	4E-\	dis-	4e-\	dis-	4g\	dis-	4cc\	dis-	4cc\	4ee-\
!	!	!	!LO:LB:g=original	!	!	!	!	!	!	!	!	!	!
=37	=37	=37	=37	=37	=37	=37	=37	=37	=37	=37	=37	=37	=37
!	!	!	!LO:TX:a:t=P:problem:♭ above	!	!LO:SIC:v:o=-cur-	!	!LO:SIC:v:o=-Cur-	!	!LO:SIC:v:o=-cur-	!	!LO:SIC:v:o=-cur-	!	!
4F\	.	4cc\	4aa-X\	4F\	-cus-	4c\	-cus-	4a-X\	-cus-	4cc\	-cus-	4a-X/	4cc\
!	!	!	!	!	!	!	!	!	!LO:MO:mod=-su-	!	!	!	!
2G\	4	2bn\	2gg\	2G\	-ſu-	2d\	-su-	2g\	-Su-	2bn\	-su-	2g/	2ddm\
.	3	.	.	.	.	.	.	.	.	.	.	.	.
=38	=38	=38	=38	=38	=38	=38	=38	=38	=38	=38	=38	=38	=38
!	!	!	!	!LO:TX:b:t=Verte Cito:mod=	!	!	!	!	!	!	!	!	!
2.C/	.	2.cc\	2.gg\	2.C/	-rus	2.c\	-rus	2.g\	-rus	2.cc\	-rus	2.en/	2.cc\
=||	=||	=||	=||	=||	=||	=||	=||	=||	=||	=||	=||	=||	=||
*-	*-	*-	*-	*-	*-	*-	*-	*-	*-	*-	*-	*-	*-
!!!system-decoration: [(g1)][(g2)][(g3)]s9
!!!ENC: Andrzej Borzym
!!!END: 2020-04-29
!!!ENC: Leszek Kubiak
!!!END: 2020-12-01
!!!ENC2: Marta Lawrence
!!!END2: 2023-08-24
!!!ENC-modern: Marta Lawrence
!!!END-modern: 2023-08-24
!!!filter-modern: sic -sq | tie -s | shed -e "s/-//B" | autostem -r | humtr -p | shed -e "s/yy//" | shed -k -e "s/([^a-gA-Gn#X-])[<>]/$1/g" | shed -e "s/:rj/:RJ/L" | shed -e "s/TX(.*):t=P:/tx$1:t=P:/LG" | shed -k -e "s/r[a-gA-G]+/r/D" | shed -e "s/LO:N:/LO:n:$1/L" | modori -m
